src/assets/apple-app-store.svg

<svg width="140" height="42" viewBox="0 0 140 42" fill="none" xmlns="http://www.w3.org/2000/svg">
<path d="M8.98526 41.9978C8.62371 41.9978 8.27089 41.9935 7.91217 41.9861C7.16905 41.9771 6.42767 41.9172 5.69411 41.807C5.0101 41.698 4.34748 41.4952 3.72811 41.2054C3.11441 40.918 2.55467 40.5411 2.07033 40.0892C1.57897 39.6426 1.1699 39.1247 0.859316 38.5559C0.54531 37.9834 0.327999 37.3697 0.214954 36.7363C0.0928741 36.0557 0.026824 35.3674 0.0173729 34.6776C0.00984937 34.446 0 33.675 0 33.675V8.311C0 8.311 0.0104902 7.55184 0.0174322 7.32881C0.0264816 6.64003 0.0921476 5.95288 0.213862 5.27331C0.327116 4.63815 0.544595 4.02273 0.85877 3.44835C1.16821 2.87994 1.57501 2.36161 2.06341 1.91343C2.55125 1.461 3.11278 1.08218 3.72752 0.790778C4.34548 0.50188 5.00685 0.300553 5.68947 0.193541C6.42544 0.0821687 7.16939 0.0219553 7.91509 0.0134064L8.98584 0H130.938L132.022 0.0139444C132.761 0.0220686 133.498 0.0817448 134.227 0.192465C134.917 0.30082 135.585 0.503552 136.21 0.793995C137.442 1.38125 138.444 2.31033 139.076 3.45103C139.385 4.02144 139.599 4.63184 139.711 5.26152C139.834 5.94666 139.903 6.63921 139.917 7.33364C139.921 7.64459 139.921 7.97859 139.921 8.311C139.93 8.72274 139.93 9.11464 139.93 9.50976V32.4891C139.93 32.888 139.93 33.2772 139.921 33.6696C139.921 34.0267 139.921 34.3538 139.916 34.6904C139.902 35.3724 139.834 36.0526 139.713 36.7255C139.602 37.3635 139.386 37.9819 139.072 38.5591C138.76 39.1218 138.353 39.6352 137.867 40.0806C137.382 40.5349 136.822 40.914 136.207 41.2033C135.583 41.4954 134.916 41.6989 134.227 41.807C133.494 41.9178 132.752 41.9777 132.009 41.9861C131.661 41.9935 131.298 41.9978 130.944 41.9978L129.658 42L8.98526 41.9978Z" fill="black"/>
<path d="M130.936 0.25L132.019 0.263672H132.02C132.746 0.27168 133.471 0.329657 134.188 0.438477V0.439453C134.855 0.544228 135.501 0.740073 136.104 1.02051C137.216 1.55115 138.13 2.36978 138.739 3.37012L138.857 3.57227C139.116 4.05042 139.305 4.55753 139.42 5.08008L139.465 5.30566C139.555 5.80982 139.616 6.31813 139.646 6.82812L139.667 7.33887C139.67 7.64734 139.671 7.97887 139.671 8.31055V8.31641C139.68 8.72487 139.68 9.11428 139.68 9.50977V32.4893C139.68 32.8886 139.68 33.2752 139.671 33.6641V33.6699C139.671 34.0266 139.671 34.3515 139.666 34.6855C139.652 35.3543 139.586 36.0218 139.467 36.6816V36.6826C139.361 37.2926 139.154 37.8845 138.854 38.4375C138.554 38.9761 138.165 39.4688 137.698 39.8965L137.696 39.8984C137.231 40.3343 136.692 40.6982 136.101 40.9766C135.574 41.2232 135.015 41.4051 134.438 41.5166L134.188 41.5596C133.467 41.6686 132.737 41.7281 132.006 41.7363H132.004C131.658 41.7438 131.296 41.748 130.944 41.748H130.943L129.657 41.749L8.98535 41.748C8.6258 41.748 8.27427 41.7438 7.91699 41.7363H7.91504C7.18338 41.7275 6.45266 41.6681 5.73047 41.5596C5.07027 41.4541 4.43104 41.2579 3.83398 40.9785C3.24356 40.7019 2.70591 40.3398 2.24121 39.9062L2.23828 39.9043L2.06543 39.7402C1.67092 39.3511 1.33883 38.9121 1.0791 38.4365L1.07812 38.4355C0.777046 37.8866 0.569128 37.2986 0.460938 36.6924C0.341263 36.0252 0.276842 35.35 0.267578 34.6738V34.6699L0.255859 34.0859C0.254163 33.9754 0.252993 33.8717 0.251953 33.7959C0.251433 33.758 0.250284 33.7266 0.25 33.7051V8.28125C0.2503 8.2601 0.25141 8.22953 0.251953 8.19238C0.253044 8.11782 0.254118 8.01583 0.255859 7.90723C0.259356 7.68918 0.264182 7.44623 0.267578 7.33691V7.33203C0.274232 6.82577 0.312019 6.32041 0.380859 5.81836L0.459961 5.31738C0.554865 4.78514 0.726367 4.2668 0.969727 3.77637L1.07812 3.56836C1.37407 3.02474 1.76383 2.52766 2.23242 2.09766L2.2334 2.09668C2.7017 1.66237 3.24142 1.2982 3.83301 1.01758C4.42937 0.738773 5.06883 0.543846 5.72852 0.44043L5.72754 0.439453C6.27078 0.357275 6.81864 0.304639 7.36816 0.279297L7.91797 0.263672L8.98926 0.25H130.936Z" stroke="white" stroke-opacity="0.3" stroke-width="0.5"/>
<path d="M25.4582 20.6957C25.4814 18.8883 26.429 17.2189 27.9688 16.2722C26.993 14.8786 25.4172 14.0266 23.7167 13.9734C21.9277 13.7857 20.1933 15.044 19.2816 15.044C18.3523 15.044 16.9487 13.9921 15.4372 14.0232C13.4484 14.0874 11.6394 15.1907 10.6718 16.9294C8.61135 20.4968 10.1483 25.7396 12.122 28.6231C13.1095 30.0351 14.2636 31.6124 15.7737 31.5565C17.2515 31.4952 17.8034 30.6141 19.5872 30.6141C21.3544 30.6141 21.8722 31.5565 23.413 31.5209C24.9987 31.4951 25.9977 30.1026 26.9506 28.6772C27.6601 27.6711 28.2061 26.5592 28.5683 25.3825C26.6849 24.586 25.4604 22.7406 25.4582 20.6957Z" fill="white"/>
<path d="M22.5477 12.0768C23.4123 11.0389 23.8382 9.7048 23.7351 8.35791C22.4142 8.49664 21.1941 9.12795 20.3178 10.126C19.4525 11.1108 19.0142 12.3991 19.0993 13.7072C20.4379 13.721 21.7089 13.12 22.5477 12.0768Z" fill="white"/>
<path d="M56.7939 31.5576H54.6211L53.4111 27.9824H48.3682L47.1572 31.5576H45.0215L49.7979 18.3281H52.0176L56.7939 31.5576ZM48.8906 26.332H52.8877L50.918 20.5283H50.8623L48.8906 26.332Z" fill="white"/>
<path fill-rule="evenodd" clip-rule="evenodd" d="M63.0479 21.8113C65.4957 21.8114 67.1093 23.7463 67.1094 26.7351C67.1094 29.7326 65.505 31.659 63.084 31.659C61.8327 31.7244 60.6535 31.0689 60.0488 29.9715H60.0029V34.7488H58.0234V21.9119H59.9395V23.5164H59.9766C60.6081 22.4258 61.7882 21.7707 63.0479 21.8113ZM62.5254 23.4988C61.0127 23.4988 59.9953 24.8096 59.9951 26.7351C59.9951 28.6786 61.0126 29.9803 62.5254 29.9803C64.0651 29.9802 65.0742 28.7056 65.0742 26.7351C65.0741 24.7826 64.065 23.4989 62.5254 23.4988Z" fill="white"/>
<path fill-rule="evenodd" clip-rule="evenodd" d="M73.6641 21.8113C76.112 21.8114 77.7255 23.7463 77.7256 26.7351C77.7256 29.7326 76.1212 31.659 73.7002 31.659C72.4489 31.7244 71.2698 31.0689 70.665 29.9715H70.6191V34.7488H68.6396V21.9119H70.5557V23.5164H70.5928C71.2244 22.4258 72.4044 21.7707 73.6641 21.8113ZM73.1416 23.4988C71.629 23.4989 70.6115 24.8096 70.6113 26.7351C70.6113 28.6786 71.6289 29.9802 73.1416 29.9803C74.6814 29.9803 75.6904 28.7057 75.6904 26.7351C75.6903 24.7825 74.6813 23.4988 73.1416 23.4988Z" fill="white"/>
<path d="M84.7426 27.8716C84.8893 29.1835 86.1638 30.045 87.9054 30.045C89.5743 30.045 90.7749 29.1835 90.7749 28.0005C90.7749 26.9737 90.0508 26.3588 88.3362 25.9374L86.6216 25.5244C84.1922 24.9376 83.0644 23.8014 83.0644 21.9578C83.0644 19.6752 85.0537 18.1073 87.8784 18.1073C90.6739 18.1073 92.5904 19.6752 92.6549 21.9578H90.6563C90.5366 20.6375 89.4452 19.8406 87.8503 19.8406C86.2553 19.8406 85.1639 20.6469 85.1639 21.8205C85.1639 22.7558 85.861 23.3062 87.5662 23.7275L89.0238 24.0854C91.7383 24.7274 92.8661 25.8177 92.8661 27.7529C92.8661 30.228 90.8945 31.7782 87.7587 31.7782C84.8247 31.7782 82.8438 30.2644 82.7158 27.8715L84.7426 27.8716Z" fill="white"/>
<path d="M97.1388 19.6298V21.9124H98.9731V23.4803H97.1388V28.7979C97.1388 29.624 97.5061 30.0089 98.3124 30.0089C98.5302 30.0051 98.7476 29.9899 98.9637 29.9631V31.5217C98.6012 31.5894 98.2327 31.6201 97.864 31.6132C95.9111 31.6132 95.1495 30.8797 95.1495 29.0091V23.4803H93.7471V21.9124H95.1495V19.6298H97.1388Z" fill="white"/>
<path d="M104.609 21.7936C107.406 21.7936 109.186 23.701 109.186 26.736C109.185 29.7789 107.415 31.6774 104.609 31.6774C101.805 31.6772 100.035 29.7787 100.035 26.736C100.035 23.7013 101.822 21.7938 104.609 21.7936ZM104.61 23.4254C103.006 23.4254 102.053 24.6635 102.053 26.736C102.053 28.8259 103.006 30.0455 104.61 30.0455C106.215 30.0455 107.169 28.8259 107.169 26.736C107.169 24.6541 106.215 23.4254 104.61 23.4254Z" fill="white"/>
<path d="M110.818 21.9123H112.707V23.554H112.753C113.016 22.4971 113.984 21.7698 115.073 21.8113C115.301 21.8105 115.528 21.8353 115.751 21.8852V23.7371C115.463 23.6491 115.162 23.6087 114.861 23.6175C114.279 23.5939 113.716 23.8259 113.319 24.2525C112.923 24.6792 112.732 25.2579 112.798 25.8367V31.5579H110.818L110.818 21.9123Z" fill="white"/>
<path d="M120.644 21.7936C123.312 21.7938 124.99 23.6269 124.99 26.5514V27.2301H118.178V27.3492C118.114 28.0673 118.362 28.7787 118.858 29.3014C119.355 29.8239 120.052 30.1082 120.772 30.0817C121.733 30.1715 122.639 29.62 123 28.7252H124.88C124.613 30.476 122.908 31.6773 120.727 31.6774C117.921 31.6774 116.179 29.797 116.179 26.7809C116.179 23.7556 117.93 21.7936 120.644 21.7936ZM120.644 23.3981C119.992 23.3942 119.367 23.6504 118.905 24.11C118.444 24.5697 118.185 25.1951 118.187 25.8463H123.009C123.045 25.2011 122.81 24.5698 122.361 24.1051C121.912 23.6405 121.29 23.3843 120.644 23.3981Z" fill="white"/>
<path fill-rule="evenodd" clip-rule="evenodd" d="M47.3174 8.36898C48.1579 8.30866 48.9811 8.62918 49.5605 9.24105C50.14 9.85293 50.4146 10.6922 50.3086 11.5282C50.3085 13.559 49.2109 14.7264 47.3174 14.7264H45.0215V8.36898H47.3174ZM46.0088 13.827H47.208C47.8084 13.8628 48.3932 13.6267 48.7998 13.1834C49.2065 12.7399 49.3914 12.1362 49.3037 11.5409C49.385 10.9481 49.1976 10.3499 48.792 9.91C48.437 9.5251 47.9477 9.29634 47.4307 9.26742H46.0088V13.827Z" fill="white"/>
<path fill-rule="evenodd" clip-rule="evenodd" d="M52.4882 10.1781C53.2222 9.72273 54.1508 9.72269 54.8847 10.1781C55.6185 10.6336 56.0304 11.4659 55.9482 12.3256C56.0319 13.1863 55.6202 14.0196 54.8857 14.476C54.1511 14.9324 53.2209 14.9324 52.4863 14.476C51.7519 14.0196 51.3401 13.1862 51.4238 12.3256C51.3415 11.4657 51.7543 10.6336 52.4882 10.1781ZM53.6875 10.6772C52.8647 10.6773 52.4013 11.2858 52.4013 12.3256C52.4014 13.3735 52.8648 13.9768 53.6875 13.977C54.5072 13.9769 54.9744 13.3694 54.9746 12.3256C54.9746 11.2857 54.5073 10.6772 53.6875 10.6772Z" fill="white"/>
<path d="M61.9639 14.7262H60.9817L59.9902 11.193H59.9153L58.928 14.7262H57.9552L56.6328 9.92889H57.5931L58.4525 13.5895H58.5232L59.5096 9.92889H60.4178L61.4042 13.5895H61.4791L62.3343 9.92889H63.281L61.9639 14.7262Z" fill="white"/>
<path d="M64.3936 9.92897H65.305V10.6911H65.3757C65.6217 10.13 66.1967 9.78673 66.8073 9.83637C67.2802 9.80082 67.7435 9.98221 68.0665 10.3293C68.3896 10.6764 68.5372 11.1516 68.4678 11.6207V14.7263H67.521V11.8584C67.521 11.0875 67.186 10.7041 66.4858 10.7041C66.1651 10.6891 65.8539 10.815 65.6337 11.0487C65.4135 11.2824 65.3064 11.6005 65.3403 11.9198V14.7263H64.3936L64.3936 9.92897Z" fill="white"/>
<path d="M69.9756 8.05615H70.9224V14.7262H69.9756V8.05615Z" fill="white"/>
<path fill-rule="evenodd" clip-rule="evenodd" d="M73.3037 10.1778C74.0377 9.72242 74.9662 9.72238 75.7002 10.1778C76.4342 10.6333 76.8468 11.4654 76.7646 12.3253C76.8483 13.1861 76.4358 14.0202 75.7011 14.4767C74.9665 14.9328 74.0363 14.933 73.3017 14.4767C72.5672 14.0202 72.1555 13.1861 72.2392 12.3253C72.157 11.4653 72.5697 10.6333 73.3037 10.1778ZM74.5029 10.6778C73.6801 10.678 73.2168 11.2856 73.2168 12.3253C73.2168 13.3734 73.6801 13.9765 74.5029 13.9767C75.3227 13.9766 75.79 13.3693 75.79 12.3253C75.79 11.2855 75.3227 10.6778 74.5029 10.6778Z" fill="white"/>
<path d="M79.9062 9.8363C81.1089 9.83636 81.7871 10.4353 81.7871 11.4486V14.726H80.876V14.0521H80.8008C80.4912 14.5444 79.9403 14.8319 79.3594 14.8051C78.9523 14.8473 78.5467 14.7152 78.2422 14.4418C77.9375 14.1682 77.7623 13.779 77.7607 13.3695C77.7608 12.506 78.4037 12.0087 79.5449 11.9379L80.8447 11.8627V11.4486C80.8447 10.9419 80.5094 10.6556 79.8623 10.6556C79.3338 10.6557 78.9674 10.8497 78.8623 11.1888H77.9463C78.0431 10.3649 78.818 9.8363 79.9062 9.8363ZM79.6729 12.6332C79.0124 12.6774 78.7129 12.9027 78.7129 13.3256C78.7131 13.7571 79.0876 14.0082 79.6025 14.0082C79.9074 14.039 80.2121 13.9451 80.4463 13.7474C80.6804 13.5497 80.824 13.2651 80.8447 12.9594V12.558L79.6729 12.6332Z" fill="white"/>
<path d="M87.5117 14.7261H86.6045V13.9683H86.5293C86.2218 14.5057 85.6412 14.828 85.0225 14.8052C83.8022 14.8052 83.0313 13.845 83.0312 12.3257C83.0312 10.8099 83.8105 9.84919 85.0225 9.84912C85.6345 9.82092 86.2083 10.149 86.4941 10.6909H86.5645V8.05615H87.5117V14.7261ZM85.291 10.6997C84.4941 10.6998 84.0098 11.3165 84.0098 12.3257C84.0099 13.343 84.489 13.9555 85.291 13.9556C86.089 13.9556 86.582 13.3341 86.582 12.3296C86.582 11.3297 86.0838 10.6997 85.291 10.6997Z" fill="white"/>
<path fill-rule="evenodd" clip-rule="evenodd" d="M92.4931 10.1781C93.2271 9.7227 94.1557 9.72265 94.8896 10.1781C95.6233 10.6336 96.0353 11.4658 95.9531 12.3256C96.0368 13.1862 95.6251 14.0196 94.8906 14.476C94.156 14.9324 93.2258 14.9324 92.4912 14.476C91.7568 14.0195 91.345 13.1861 91.4287 12.3256C91.3464 11.4657 91.7591 10.6336 92.4931 10.1781ZM93.6923 10.6771C92.8694 10.6771 92.4062 11.2857 92.4062 12.3256C92.4063 13.3735 92.8695 13.9769 93.6923 13.9769C94.5121 13.9769 94.9793 13.3694 94.9795 12.3256C94.9795 11.2857 94.5122 10.6771 93.6923 10.6771Z" fill="white"/>
<path d="M97.2236 9.92897H98.135V10.6911H98.2058C98.4518 10.13 99.0267 9.78673 99.6374 9.83637C100.11 9.80082 100.574 9.98221 100.897 10.3293C101.22 10.6764 101.367 11.1516 101.298 11.6207V14.7263H100.351V11.8584C100.351 11.0875 100.016 10.7041 99.3159 10.7041C98.9952 10.6891 98.6839 10.815 98.4638 11.0487C98.2436 11.2824 98.1364 11.6005 98.1704 11.9198V14.7263H97.2236V9.92897Z" fill="white"/>
<path d="M106.648 8.73456V9.9508H107.687V10.7483H106.648V13.2151C106.648 13.7176 106.855 13.9377 107.326 13.9377C107.447 13.9373 107.567 13.93 107.687 13.9158V14.7044C107.517 14.7349 107.345 14.751 107.172 14.7528C106.119 14.7528 105.7 14.3824 105.7 13.4575V10.7482H104.938V9.95076H105.7V8.73456H106.648Z" fill="white"/>
<path d="M108.98 8.05615H109.919V10.6998H109.994C110.252 10.1338 110.837 9.79016 111.457 9.84047C111.927 9.81488 112.384 10.0003 112.703 10.3461C113.023 10.692 113.171 11.1623 113.109 11.6289V14.7262H112.161V11.8625C112.161 11.0962 111.804 10.7082 111.135 10.7082C110.806 10.6811 110.481 10.8009 110.248 11.0354C110.016 11.2699 109.898 11.5952 109.927 11.9244V14.7262H108.981L108.98 8.05615Z" fill="white"/>
<path fill-rule="evenodd" clip-rule="evenodd" d="M116.546 9.83634C117.881 9.83635 118.685 10.7488 118.685 12.2553V12.5854H115.299V12.6381C115.269 12.9939 115.39 13.3462 115.633 13.6078C115.876 13.8695 116.219 14.0161 116.576 14.0121C117.039 14.0677 117.49 13.8385 117.718 13.4311H118.629C118.363 14.336 117.487 14.9204 116.55 14.8188C115.91 14.8356 115.296 14.5707 114.869 14.0942C114.442 13.6174 114.247 12.977 114.334 12.3432C114.249 11.7076 114.444 11.0662 114.868 10.5854C115.292 10.1045 115.904 9.83087 116.546 9.83634ZM116.541 10.642C116.21 10.6378 115.891 10.7684 115.657 11.0024C115.423 11.2363 115.294 11.5545 115.299 11.8852H117.722C117.746 11.5596 117.631 11.239 117.406 11.0024C117.181 10.7658 116.867 10.6346 116.541 10.642Z" fill="white"/>
</svg>

<svg xmlns="http://www.w3.org/2000/svg" width="140" height="42" fill="none" viewBox="0 0 140 42"><path fill="#000" d="M8.985 41.998c-.361 0-.714-.005-1.073-.012a16 16 0 0 1-2.218-.179 7.4 7.4 0 0 1-1.966-.602A6.4 6.4 0 0 1 2.07 40.09a5.96 5.96 0 0 1-1.855-3.353 12.6 12.6 0 0 1-.198-2.058A93 93 0 0 1 0 33.675V8.311s.01-.76.017-.982q.014-1.035.197-2.056a6 6 0 0 1 1.85-3.36A6.6 6.6 0 0 1 3.727.791 7.3 7.3 0 0 1 5.689.194Q6.795.026 7.915.014L8.985 0h121.953l1.084.014q1.11.013 2.205.178c.69.109 1.358.312 1.983.602 1.232.587 2.234 1.516 2.866 2.657a6 6 0 0 1 .635 1.81q.185 1.03.206 2.073c.004.31.004.645.004.977.009.412.009.804.009 1.199v22.98c0 .398 0 .787-.009 1.18 0 .357 0 .684-.005 1.02a13 13 0 0 1-.203 2.035 6 6 0 0 1-.641 1.834 6 6 0 0 1-1.205 1.522 6.4 6.4 0 0 1-1.66 1.122 7.4 7.4 0 0 1-1.98.604q-1.102.165-2.218.18a51 51 0 0 1-1.065.01l-1.286.003z"/><path stroke="#fff" stroke-opacity=".3" stroke-width=".5" d="m130.936.25 1.083.014h.001a16 16 0 0 1 2.168.174V.44a7.2 7.2 0 0 1 1.916.582 6.2 6.2 0 0 1 2.635 2.35l.118.201c.259.478.448.986.563 1.508l.045.226q.136.756.181 1.522l.021.51c.003.31.004.64.004.973v.005c.009.409.009.798.009 1.194v22.98c0 .399 0 .785-.009 1.174v.006c0 .357 0 .681-.005 1.015q-.02 1.006-.199 1.997a5.7 5.7 0 0 1-.613 1.755 5.8 5.8 0 0 1-1.156 1.46l-.002.001c-.465.436-1.004.8-1.595 1.079a7 7 0 0 1-1.663.54l-.25.043q-1.083.164-2.182.176h-.002a50 50 0 0 1-1.06.012h-.001l-1.286.001-120.672-.001c-.36 0-.71-.004-1.068-.012h-.002a16 16 0 0 1-2.185-.176 7.1 7.1 0 0 1-1.896-.582 6.2 6.2 0 0 1-1.593-1.072l-.003-.002-.173-.164a5.6 5.6 0 0 1-.986-1.303v-.002a5.7 5.7 0 0 1-.618-1.743 12.4 12.4 0 0 1-.193-2.018v-.004l-.012-.584-.004-.29-.002-.09V8.28l.002-.089.004-.285c.003-.218.008-.46.012-.57v-.005q.01-.76.113-1.514l.079-.5a5.7 5.7 0 0 1 .51-1.542l.108-.208a5.7 5.7 0 0 1 1.154-1.47l.001-.001a6.4 6.4 0 0 1 1.6-1.08A7 7 0 0 1 5.729.44h-.001a16 16 0 0 1 1.64-.16l.55-.016L8.989.25z"/><path fill="#fff" d="M25.458 20.696a5.27 5.27 0 0 1 2.51-4.424 5.4 5.4 0 0 0-4.251-2.299c-1.79-.187-3.524 1.071-4.435 1.071-.93 0-2.333-1.052-3.845-1.02a5.66 5.66 0 0 0-4.765 2.905c-2.06 3.568-.524 8.81 1.45 11.694.988 1.412 2.142 2.99 3.652 2.933 1.478-.06 2.03-.942 3.813-.942 1.767 0 2.285.942 3.826.907 1.586-.026 2.585-1.418 3.538-2.844a11.7 11.7 0 0 0 1.617-3.294 5.09 5.09 0 0 1-3.11-4.687m-2.91-8.619a5.2 5.2 0 0 0 1.187-3.72 5.28 5.28 0 0 0-3.417 1.769 4.94 4.94 0 0 0-1.219 3.581 4.37 4.37 0 0 0 3.449-1.63m34.246 19.481H54.62l-1.21-3.576h-5.043l-1.21 3.576h-2.136l4.776-13.23h2.22zm-7.903-5.226h3.997l-1.97-5.804h-.056z"/><path fill="#fff" fill-rule="evenodd" d="M63.048 21.811c2.448 0 4.061 1.935 4.061 4.924 0 2.998-1.604 4.924-4.025 4.924a3.27 3.27 0 0 1-3.035-1.687h-.046v4.777h-1.98V21.912h1.916v1.604h.038a3.42 3.42 0 0 1 3.07-1.705m-.523 1.688c-1.512 0-2.53 1.31-2.53 3.236 0 1.944 1.018 3.245 2.53 3.245 1.54 0 2.55-1.274 2.55-3.245 0-1.952-1.01-3.236-2.55-3.236m11.14-1.688c2.448 0 4.061 1.935 4.062 4.924 0 2.998-1.605 4.924-4.026 4.924a3.27 3.27 0 0 1-3.035-1.687h-.046v4.777h-1.98V21.912h1.917v1.604h.037a3.42 3.42 0 0 1 3.071-1.705m-.522 1.688c-1.513 0-2.53 1.31-2.53 3.236 0 1.944 1.017 3.245 2.53 3.245 1.54 0 2.548-1.274 2.548-3.245 0-1.953-1.009-3.236-2.548-3.236" clip-rule="evenodd"/><path fill="#fff" d="M84.743 27.872c.146 1.311 1.42 2.173 3.162 2.173 1.67 0 2.87-.862 2.87-2.045 0-1.026-.724-1.641-2.439-2.063l-1.714-.413c-2.43-.586-3.558-1.723-3.558-3.566 0-2.283 1.99-3.85 4.814-3.85 2.796 0 4.712 1.567 4.777 3.85h-1.999c-.12-1.32-1.21-2.117-2.806-2.117-1.595 0-2.686.806-2.686 1.98 0 .935.697 1.485 2.402 1.906l1.458.358c2.714.642 3.842 1.733 3.842 3.668 0 2.475-1.972 4.025-5.107 4.025-2.934 0-4.915-1.514-5.043-3.906zm12.396-8.242v2.282h1.834v1.568H97.14v5.318c0 .826.367 1.21 1.173 1.21q.328-.004.652-.045v1.559a5.4 5.4 0 0 1-1.1.091c-1.953 0-2.715-.733-2.715-2.604V23.48h-1.402v-1.568h1.403V19.63zm7.47 2.164c2.797 0 4.577 1.907 4.577 4.942-.001 3.043-1.771 4.941-4.577 4.941-2.804 0-4.574-1.898-4.574-4.941 0-3.035 1.787-4.942 4.574-4.942m.001 1.631c-1.604 0-2.557 1.238-2.557 3.311 0 2.09.953 3.31 2.557 3.31s2.559-1.22 2.559-3.31c0-2.082-.954-3.31-2.559-3.31m6.208-1.514h1.889v1.642h.046a2.3 2.3 0 0 1 2.32-1.743q.343 0 .678.074v1.852a2.8 2.8 0 0 0-.89-.12 1.996 1.996 0 0 0-2.063 2.22v5.72h-1.98zm9.826-.118c2.668 0 4.346 1.833 4.346 4.757v.68h-6.812v.118a2.513 2.513 0 0 0 2.594 2.733A2.18 2.18 0 0 0 123 28.725h1.88c-.267 1.751-1.972 2.952-4.153 2.952-2.806 0-4.548-1.88-4.548-4.896 0-3.025 1.751-4.987 4.465-4.987m0 1.604a2.443 2.443 0 0 0-2.457 2.448h4.822a2.32 2.32 0 0 0-2.365-2.448"/><path fill="#fff" fill-rule="evenodd" d="M47.317 8.369a2.813 2.813 0 0 1 2.992 3.16c0 2.03-1.098 3.197-2.992 3.197h-2.295V8.37zm-1.308 5.458h1.199a1.998 1.998 0 0 0 2.096-2.286 2.004 2.004 0 0 0-1.873-2.274h-1.422zm6.479-3.649a2.273 2.273 0 0 1 3.46 2.148 2.272 2.272 0 1 1-4.524 0 2.27 2.27 0 0 1 1.064-2.148m1.2.5c-.823 0-1.287.608-1.287 1.648 0 1.047.464 1.65 1.286 1.651.82 0 1.287-.608 1.288-1.651 0-1.04-.468-1.649-1.288-1.649" clip-rule="evenodd"/><path fill="#fff" d="M61.964 14.726h-.982l-.992-3.533h-.075l-.987 3.533h-.973L56.633 9.93h.96l.86 3.66h.07l.987-3.66h.908l.986 3.66h.075l.855-3.66h.947zm2.43-4.797h.911v.762h.07a1.44 1.44 0 0 1 1.432-.855 1.56 1.56 0 0 1 1.66 1.785v3.105h-.946v-2.868c0-.77-.335-1.154-1.035-1.154a1.1 1.1 0 0 0-1.146 1.216v2.806h-.946zm5.582-1.873h.946v6.67h-.946z"/><path fill="#fff" fill-rule="evenodd" d="M73.304 10.178a2.273 2.273 0 0 1 3.46 2.147 2.274 2.274 0 1 1-4.525 0 2.27 2.27 0 0 1 1.065-2.147m1.199.5c-.823 0-1.286.608-1.286 1.647 0 1.048.463 1.652 1.286 1.652.82 0 1.287-.608 1.287-1.652 0-1.04-.467-1.647-1.287-1.647" clip-rule="evenodd"/><path fill="#fff" d="M79.906 9.836c1.203 0 1.881.6 1.881 1.613v3.277h-.911v-.674h-.075c-.31.492-.86.78-1.442.753a1.45 1.45 0 0 1-1.598-1.435c0-.864.643-1.361 1.784-1.432l1.3-.075v-.414c0-.507-.336-.793-.983-.793-.528 0-.895.194-1 .533h-.916c.097-.824.872-1.353 1.96-1.353m-.233 2.797c-.66.044-.96.27-.96.693 0 .431.375.682.89.682a1.13 1.13 0 0 0 1.242-1.049v-.401zm7.839 2.093h-.907v-.758h-.076c-.307.538-.888.86-1.507.837-1.22 0-1.99-.96-1.99-2.48 0-1.515.779-2.476 1.99-2.476.612-.028 1.186.3 1.472.842h.07V8.056h.948zM85.29 10.7c-.797 0-1.281.617-1.281 1.626 0 1.017.479 1.63 1.281 1.63.798 0 1.291-.622 1.291-1.626 0-1-.498-1.63-1.291-1.63"/><path fill="#fff" fill-rule="evenodd" d="M92.493 10.178a2.273 2.273 0 0 1 3.46 2.148 2.272 2.272 0 1 1-4.524 0 2.27 2.27 0 0 1 1.064-2.148m1.2.5c-.824 0-1.287.608-1.287 1.648 0 1.047.463 1.65 1.286 1.65.82 0 1.287-.607 1.288-1.65 0-1.04-.468-1.649-1.288-1.649" clip-rule="evenodd"/><path fill="#fff" d="M97.224 9.929h.911v.762h.07a1.44 1.44 0 0 1 1.432-.855 1.56 1.56 0 0 1 1.661 1.785v3.105h-.947v-2.868c0-.77-.335-1.154-1.035-1.154a1.1 1.1 0 0 0-1.146 1.216v2.806h-.946zm9.424-1.194V9.95h1.039v.797h-1.039v2.467c0 .503.207.723.678.723q.181 0 .361-.022v.788q-.255.045-.515.049c-1.053 0-1.472-.37-1.472-1.296v-2.709h-.762V9.95h.762V8.735zm2.332-.679h.939V10.7h.075c.258-.566.843-.91 1.463-.86a1.58 1.58 0 0 1 1.652 1.789v3.097h-.948v-2.863c0-.767-.357-1.155-1.026-1.155a1.12 1.12 0 0 0-1.208 1.216v2.802h-.946z"/><path fill="#fff" fill-rule="evenodd" d="M116.546 9.836c1.335 0 2.139.913 2.139 2.42v.33h-3.386v.052a1.27 1.27 0 0 0 1.277 1.374c.463.056.914-.174 1.142-.58h.911a1.95 1.95 0 0 1-2.079 1.387 2.18 2.18 0 0 1-2.216-2.476 2.214 2.214 0 0 1 2.212-2.507m-.005.806a1.23 1.23 0 0 0-1.242 1.243h2.423a1.16 1.16 0 0 0-1.181-1.243" clip-rule="evenodd"/></svg>
